X: 10692
Q: "Slow."
M: C
L: 1/8
K: C
(g/f/) |\
(egf)d {B}c2 Tcd/e/ | (fa)ge d2 Tdg/f/ |\
(ef)dB (ce) GE | FAGE C2 Cg/f/ |\
(eg)fd {B}c2 Tcd/e/ | (fa)ge d2 Tde/f/ |\
g>ef>d ec GE | (FA)GE C2C |]


